packages/icons/svgs/solid/Source=cloud-rain.svg

<svg xmlns="http://www.w3.org/2000/svg" width="12" height="12" viewBox="0 0 12 12"><g clip-path="url(#a)"><path d="m11.025 8.25-.975-1.125c.3-.3.45-.675.45-1.125 0-.75-.45-2.025-2.925-1.05C7.5 4.2 7.275 1.5 4.5 1.5c-1.65 0-3 1.35-3 3 0 .975.45 1.8 1.2 2.4l-.9 1.2C.675 7.275 0 5.925 0 4.5 0 2.025 2.025 0 4.5 0c1.95 0 3.6 1.2 4.2 3 1.8-.15 3.3 1.275 3.3 3 0 .825-.375 1.65-.975 2.25ZM6.75 9.75h-1.5V12h1.5V9.75ZM4.5 8.25H3v2.25h1.5V8.25Zm4.5 0H7.5v2.25H9V8.25Z"/></g><defs><clipPath id="a"><path fill="#fff" d="M0 0h12v12H0z"/></clipPath></defs></svg>

<svg width="12" height="12" viewBox="0 0 12 12" fill="none" xmlns="http://www.w3.org/2000/svg">
<g clip-path="url(#clip0_862_987)">
<path d="M11.025 8.25L10.05 7.125C10.35 6.825 10.5 6.45 10.5 6C10.5 5.25 10.05 3.975 7.575 4.95C7.5 4.2 7.275 1.5 4.5 1.5C2.85 1.5 1.5 2.85 1.5 4.5C1.5 5.475 1.95 6.3 2.7 6.9L1.8 8.1C0.675 7.275 0 5.925 0 4.5C0 2.025 2.025 0 4.5 0C6.45 0 8.1 1.2 8.7 3C10.5 2.85 12 4.275 12 6C12 6.825 11.625 7.65 11.025 8.25Z" fill="black"/>
<path d="M6.75 9.75H5.25V12H6.75V9.75Z" fill="black"/>
<path d="M4.5 8.25H3V10.5H4.5V8.25Z" fill="black"/>
<path d="M9 8.25H7.5V10.5H9V8.25Z" fill="black"/>
</g>
<defs>
<clipPath id="clip0_862_987">
<rect width="12" height="12" fill="white"/>
</clipPath>
</defs>
</svg>
